svgs/light/face-anguished.svg

<svg xmlns="http://www.w3.org/2000/svg" viewBox="0 0 512 512"><!--! Font Awesome Pro 6.4.2 by @fontawesome - https://fontawesome.com License - https://fontawesome.com/license (Commercial License) Copyright 2023 Fonticons, Inc. --><path d="M480 256A224 224 0 1 0 32 256a224 224 0 1 0 448 0zM0 256a256 256 0 1 1 512 0A256 256 0 1 1 0 256zm251.8 48h8.4c50.7 0 91.8 41.1 91.8 91.8c0 11.2-9 20.2-20.2 20.2H180.2c-11.2 0-20.2-9-20.2-20.2c0-50.7 41.1-91.8 91.8-91.8zm8.4 32h-8.4c-29 0-53.2 20.6-58.6 48H318.8c-5.5-27.4-29.6-48-58.6-48zM152.4 224a24 24 0 1 1 48 0 24 24 0 1 1 -48 0zm184-24a24 24 0 1 1 0 48 24 24 0 1 1 0-48zM192 128c-4.4 0-8.8 .3-13 .9c-21.2 2.8-40.6 12.4-56.1 26.8c-6.5 6-16.6 5.7-22.6-.8s-5.7-16.6 .8-22.6c20.1-18.7 45.5-31.5 73.7-35.2c5.6-.7 11.4-1.1 17.2-1.1c8.8 0 16 7.2 16 16s-7.2 16-16 16zm141 .9c-4.3-.6-8.6-.9-13-.9c-8.8 0-16-7.2-16-16s7.2-16 16-16c5.8 0 11.6 .4 17.2 1.1c28.2 3.7 53.7 16.4 73.7 35.2c6.5 6 6.8 16.2 .8 22.6s-16.2 6.8-22.6 .8c-15.5-14.5-34.8-24-56.1-26.8z"/></svg>

<svg xmlns="http://www.w3.org/2000/svg" viewBox="0 0 512 512"><!--! Font Awesome Pro 6.1.1 by @fontawesome - https://fontawesome.com License - https://fontawesome.com/license (Commercial License) Copyright 2022 Fonticons, Inc. --><path d="M260.2 304C310.9 304 352 345.1 352 395.8C352 406.1 342.1 416 331.8 416H180.2C169 416 160 406.1 160 395.8C160 345.1 201.1 304 251.8 304H260.2zM251.8 336C222.8 336 198.6 356.6 193.2 384H318.8C313.4 356.6 289.2 336 260.2 336H251.8zM200.4 224C200.4 237.3 189.6 248 176.4 248C163.1 248 152.4 237.3 152.4 224C152.4 210.7 163.1 200 176.4 200C189.6 200 200.4 210.7 200.4 224zM312.4 224C312.4 210.7 323.1 200 336.4 200C349.6 200 360.4 210.7 360.4 224C360.4 237.3 349.6 248 336.4 248C323.1 248 312.4 237.3 312.4 224zM192 128C187.6 128 183.2 128.3 178.1 128.9C157.8 131.7 138.4 141.2 122.9 155.7C116.5 161.7 106.3 161.4 100.3 154.9C94.28 148.5 94.62 138.3 101.1 132.3C121.1 113.6 146.6 100.9 174.8 97.13C180.4 96.38 186.2 96 192 96C200.8 96 208 103.2 208 112C208 120.8 200.8 128 192 128zM333 128.9C328.8 128.3 324.4 128 320 128C311.2 128 304 120.8 304 112C304 103.2 311.2 96 320 96C325.8 96 331.6 96.38 337.2 97.13C365.4 100.9 390.9 113.6 410.9 132.3C417.4 138.3 417.7 148.5 411.7 154.9C405.7 161.4 395.5 161.7 389.1 155.7C373.6 141.2 354.2 131.7 333 128.9zM512 256C512 397.4 397.4 512 256 512C114.6 512 0 397.4 0 256C0 114.6 114.6 0 256 0C397.4 0 512 114.6 512 256zM256 32C132.3 32 32 132.3 32 256C32 379.7 132.3 480 256 480C379.7 480 480 379.7 480 256C480 132.3 379.7 32 256 32z"/></svg>
